assets/Dizzy/Flat/dizzy_flat.svg

<svg width="32" height="32" viewBox="0 0 32 32" fill="none" xmlns="http://www.w3.org/2000/svg">
<path d="M3.22755 11.6784C2.64755 10.4084 2.16755 9.05836 2.02755 7.60836C1.96755 6.87836 1.99755 6.12836 2.19755 5.37836C2.38755 4.63836 2.77755 3.88836 3.39755 3.34836C4.59755 2.20836 6.30755 1.91836 7.78755 2.01836C9.29755 2.10836 10.7375 2.48836 12.0875 3.00836C14.7975 4.07836 17.2575 5.62836 19.4875 7.42836C21.7275 9.22836 23.7675 11.2684 25.5375 13.5884C26.4375 14.7384 27.2475 15.9684 27.9675 17.2784C28.6875 18.5884 29.3275 19.9784 29.7175 21.5684C30.0675 23.1284 30.3075 24.9584 29.4275 26.9284C29.3075 27.1684 29.1875 27.3984 29.0575 27.6384C28.8975 27.8584 28.7275 28.0784 28.5475 28.2884C28.2275 28.7384 27.7475 29.0384 27.3175 29.3684C26.3875 29.8884 25.3775 30.2184 24.4675 30.2584C22.6175 30.3784 21.0375 29.9484 19.5975 29.3884C18.1775 28.7884 16.8475 28.0884 15.6775 27.1984C13.2875 25.4984 11.2875 23.3884 9.71755 21.0284C9.65755 20.9284 9.67755 20.8084 9.77755 20.7384C9.84755 20.6884 9.93755 20.6984 10.0075 20.7384C12.3775 22.2484 14.6975 23.6584 17.1075 24.7184C18.3075 25.2484 19.5175 25.6984 20.7175 25.9684C21.8975 26.2584 23.0875 26.3984 23.9975 26.2084C24.4775 26.1684 24.7775 25.9684 25.0575 25.8284C25.2575 25.6084 25.4975 25.4784 25.5975 25.1384C25.9075 24.5684 25.9575 23.4784 25.7875 22.3684C25.6375 21.2384 25.2475 20.0284 24.7475 18.8684C24.2375 17.7084 23.6175 16.5584 22.8975 15.4684C21.4775 13.2684 19.7175 11.2384 17.7775 9.42836C15.8375 7.60836 13.6675 6.01836 11.2975 4.87836C10.1075 4.28836 8.87755 3.84836 7.62755 3.64836C6.38755 3.44836 5.11755 3.58836 4.21755 4.29836C3.27755 4.96836 2.89755 6.27836 2.88755 7.56836C2.86755 8.88836 3.17755 10.2284 3.60755 11.5284C3.64755 11.6384 3.58755 11.7484 3.47755 11.7884C3.38755 11.8184 3.27755 11.7684 3.22755 11.6784Z" fill="#F9C23C"/>
<path d="M9.49755 18.0582L10.8875 18.5282C11.3275 18.6782 11.8175 18.5982 12.1875 18.3182L13.3675 17.4382C14.3075 16.7382 15.6375 17.4182 15.6275 18.5882L15.6075 20.0582C15.5975 20.5282 15.8275 20.9582 16.2075 21.2282L17.4075 22.0782C18.3675 22.7582 18.1275 24.2382 17.0075 24.5782L15.5975 25.0182C15.1575 25.1582 14.8075 25.5082 14.6675 25.9482L14.2275 27.3582C13.8775 28.4782 12.3975 28.7082 11.7275 27.7582L10.8775 26.5582C10.6075 26.1782 10.1675 25.9582 9.70755 25.9582L8.23755 25.9782C7.07755 25.9982 6.39755 24.6582 7.09755 23.7182L7.97755 22.5382C8.25755 22.1682 8.33755 21.6782 8.18755 21.2382L7.71755 19.8482C7.32755 18.7382 8.38755 17.6782 9.49755 18.0582Z" fill="#FFB02E"/>
</svg>

<svg xmlns="http://www.w3.org/2000/svg" width="32" height="32" fill="none"><path fill="#F9C23C" d="M3.228 11.678c-.58-1.27-1.06-2.62-1.2-4.07-.06-.73-.03-1.48.17-2.23.19-.74.58-1.49 1.2-2.03 1.2-1.14 2.91-1.43 4.39-1.33 1.51.09 2.95.47 4.3.99 2.71 1.07 5.17 2.62 7.4 4.42 2.24 1.8 4.28 3.84 6.05 6.16.9 1.15 1.71 2.38 2.43 3.69.72 1.31 1.36 2.7 1.75 4.29.35 1.56.59 3.39-.29 5.36-.12.24-.24.47-.37.71-.16.22-.33.44-.51.65-.32.45-.8.75-1.23 1.08-.93.52-1.94.85-2.85.89-1.85.12-3.43-.31-4.87-.87-1.42-.6-2.75-1.3-3.92-2.19-2.39-1.7-4.39-3.81-5.96-6.17a.21.21 0 0 1 .06-.29c.07-.05.16-.04.23 0 2.37 1.51 4.69 2.92 7.1 3.98 1.2.53 2.41.98 3.61 1.25 1.18.29 2.37.43 3.28.24.48-.04.78-.24 1.06-.38.2-.22.44-.35.54-.69.31-.57.36-1.66.19-2.77-.15-1.13-.54-2.34-1.04-3.5-.51-1.16-1.13-2.31-1.85-3.4-1.42-2.2-3.18-4.23-5.12-6.04-1.94-1.82-4.11-3.41-6.48-4.55-1.19-.59-2.42-1.03-3.67-1.23-1.24-.2-2.51-.06-3.41.65-.94.67-1.32 1.98-1.33 3.27-.02 1.32.29 2.66.72 3.96.04.11-.02.22-.13.26-.09.03-.2-.02-.25-.11Z"/><path fill="#FFB02E" d="m9.498 18.058 1.39.47c.44.15.93.07 1.3-.21l1.18-.88c.94-.7 2.27-.02 2.26 1.15l-.02 1.47c-.01.47.22.9.6 1.17l1.2.85c.96.68.72 2.16-.4 2.5l-1.41.44c-.44.14-.79.49-.93.93l-.44 1.41c-.35 1.12-1.83 1.35-2.5.4l-.85-1.2c-.27-.38-.71-.6-1.17-.6l-1.47.02c-1.16.02-1.84-1.32-1.14-2.26l.88-1.18c.28-.37.36-.86.21-1.3l-.47-1.39c-.39-1.11.67-2.17 1.78-1.79Z"/></svg>
